entry/src/main/resources/rawfile/ic_train.svg

<svg width="24" height="24" viewBox="0 0 24 24" fill="none" xmlns="http://www.w3.org/2000/svg">
<mask id="mask0_321_13" style="mask-type:alpha" maskUnits="userSpaceOnUse" x="0" y="0" width="24" height="24">
<rect width="24" height="24" fill="#D9D9D9"/>
</mask>
<g mask="url(#mask0_321_13)">
<path d="M7.05 8.45L4.2 11.3C4.01667 11.4833 3.7875 11.5792 3.5125 11.5875C3.2375 11.5958 3 11.5 2.8 11.3C2.61667 11.1167 2.52083 10.8875 2.5125 10.6125C2.50417 10.3375 2.59167 10.1 2.775 9.9L3.5 9.15L2.8 8.45C2.6 8.25 2.5 8.01667 2.5 7.75C2.5 7.48333 2.6 7.25 2.8 7.05L4.2 5.65L3.475 4.9C3.29167 4.71667 3.2 4.4875 3.2 4.2125C3.2 3.9375 3.3 3.7 3.5 3.5C3.68333 3.31667 3.9125 3.22083 4.1875 3.2125C4.4625 3.20417 4.7 3.29167 4.9 3.475L5.65 4.2L7.05 2.8C7.25 2.6 7.48333 2.5 7.75 2.5C8.01667 2.5 8.25 2.6 8.45 2.8L9.15 3.5L9.9 2.775C10.0833 2.59167 10.3125 2.5 10.5875 2.5C10.8625 2.5 11.1 2.6 11.3 2.8C11.4833 2.98333 11.575 3.21667 11.575 3.5C11.575 3.78333 11.4833 4.01667 11.3 4.2L8.45 7.05L16.95 15.55L19.8 12.7C19.9833 12.5167 20.2125 12.4208 20.4875 12.4125C20.7625 12.4042 21 12.5 21.2 12.7C21.3833 12.8833 21.4792 13.1125 21.4875 13.3875C21.4958 13.6625 21.4083 13.9 21.225 14.1L20.5 14.85L21.2 15.55C21.4 15.75 21.5 15.9833 21.5 16.25C21.5 16.5167 21.4 16.75 21.2 16.95L19.8 18.35L20.525 19.1C20.7083 19.2833 20.8 19.5125 20.8 19.7875C20.8 20.0625 20.7 20.3 20.5 20.5C20.3167 20.6833 20.0875 20.7792 19.8125 20.7875C19.5375 20.7958 19.3 20.7083 19.1 20.525L18.35 19.8L16.95 21.2C16.75 21.4 16.5167 21.5 16.25 21.5C15.9833 21.5 15.75 21.4 15.55 21.2L14.85 20.5L14.1 21.225C13.9167 21.4083 13.6875 21.5 13.4125 21.5C13.1375 21.5 12.9 21.4 12.7 21.2C12.5167 21.0167 12.425 20.7833 12.425 20.5C12.425 20.2167 12.5167 19.9833 12.7 19.8L15.55 16.95L7.05 8.45Z" fill="#FFD728"/>
</g>
</svg>

<svg xmlns="http://www.w3.org/2000/svg" width="24" height="24" fill="none" viewBox="0 0 24 24">
  <mask id="a" width="24" height="24" x="0" y="0" maskUnits="userSpaceOnUse" style="mask-type:alpha">
    <path fill="#D9D9D9" d="M0 0h24v24H0z"/>
  </mask>
  <g mask="url(#a)">
    <path fill="#fff" d="M7.05 8.45 4.2 11.3a.977.977 0 0 1-.688.287.93.93 0 0 1-.712-.287.977.977 0 0 1-.287-.688.973.973 0 0 1 .262-.712l.725-.75-.7-.7a.96.96 0 0 1-.3-.7c0-.267.1-.5.3-.7l1.4-1.4-.725-.75a.933.933 0 0 1-.275-.688c0-.274.1-.512.3-.712a.977.977 0 0 1 .688-.288.973.973 0 0 1 .712.263l.75.725 1.4-1.4c.2-.2.433-.3.7-.3.267 0 .5.1.7.3l.7.7.75-.725a.933.933 0 0 1 .688-.275c.275 0 .512.1.712.3a.948.948 0 0 1 .275.7.948.948 0 0 1-.275.7L8.45 7.05l8.5 8.5 2.85-2.85a.977.977 0 0 1 .688-.287.93.93 0 0 1 .712.287c.183.183.28.413.288.688a.973.973 0 0 1-.263.712l-.725.75.7.7c.2.2.3.433.3.7 0 .267-.1.5-.3.7l-1.4 1.4.725.75a.933.933 0 0 1 .275.688c0 .274-.1.512-.3.712a.977.977 0 0 1-.688.288.973.973 0 0 1-.712-.263l-.75-.725-1.4 1.4c-.2.2-.433.3-.7.3a.96.96 0 0 1-.7-.3l-.7-.7-.75.725a.933.933 0 0 1-.688.275.973.973 0 0 1-.712-.3.948.948 0 0 1-.275-.7.95.95 0 0 1 .275-.7l2.85-2.85-8.5-8.5Z"/>
  </g>
</svg>
